img/fiat-exchanges/fiatom.svg

<svg width="719" height="404" viewBox="0 0 719 404" fill="none" xmlns="http://www.w3.org/2000/svg">
<path d="M44.844 169.016H71.1778V191.915H45.6073V269.39H15.8385V191.915H0V169.016H15.8385V164.437C15.8385 152.733 19.2734 143.446 26.1431 136.576C33.14 129.706 42.9357 126.271 55.5302 126.271C59.9828 126.271 64.1809 126.78 68.1246 127.798C72.1956 128.689 75.5668 130.024 78.2384 131.805L70.4146 153.369C66.9797 150.952 62.9724 149.743 58.3926 149.743C49.3602 149.743 44.844 154.704 44.844 164.627V169.016Z" fill="#1C1C1C"/>
<path d="M90.6881 166.726H120.457V269.39H90.6881V166.726ZM105.572 152.415C100.102 152.415 95.6495 150.824 92.2147 147.644C88.7798 144.463 87.0624 140.52 87.0624 135.813C87.0624 131.106 88.7798 127.162 92.2147 123.982C95.6495 120.801 100.102 119.211 105.572 119.211C111.043 119.211 115.495 120.738 118.93 123.791C122.365 126.844 124.083 130.66 124.083 135.24C124.083 140.202 122.365 144.336 118.93 147.644C115.495 150.824 111.043 152.415 105.572 152.415Z" fill="#1C1C1C"/>
<path d="M178.892 165.2C194.795 165.2 207.007 169.016 215.531 176.649C224.054 184.155 228.316 195.541 228.316 210.807V269.39H200.456V256.605C194.858 266.146 184.426 270.917 169.16 270.917C161.273 270.917 154.403 269.581 148.551 266.91C142.826 264.238 138.437 260.549 135.384 255.842C132.331 251.135 130.804 245.792 130.804 239.813C130.804 230.271 134.367 222.765 141.491 217.295C148.742 211.825 159.874 209.09 174.885 209.09H198.547C198.547 202.602 196.576 197.64 192.632 194.205C188.688 190.643 182.773 188.862 174.885 188.862C169.415 188.862 164.008 189.753 158.665 191.534C153.449 193.188 148.996 195.477 145.307 198.403L134.621 177.603C140.219 173.66 146.897 170.607 154.658 168.444C162.545 166.281 170.623 165.2 178.892 165.2ZM176.603 250.88C181.691 250.88 186.207 249.735 190.151 247.446C194.095 245.028 196.894 241.53 198.547 236.95V226.455H178.129C165.916 226.455 159.81 230.462 159.81 238.477C159.81 242.293 161.273 245.346 164.199 247.636C167.252 249.799 171.387 250.88 176.603 250.88Z" fill="#1C1C1C"/>
<path d="M310.873 264.429C307.947 266.592 304.322 268.246 299.996 269.39C295.798 270.408 291.346 270.917 286.639 270.917C274.426 270.917 264.948 267.8 258.206 261.567C251.59 255.333 248.283 246.173 248.283 234.088V191.915H232.444V169.016H248.283V144.018H278.051V169.016H303.622V191.915H278.051V233.706C278.051 238.032 279.133 241.403 281.295 243.82C283.585 246.11 286.766 247.255 290.837 247.255C295.544 247.255 299.551 245.983 302.859 243.438L310.873 264.429Z" fill="#1C1C1C"/>
<path d="M562.692 165.199C575.54 165.199 585.718 169.016 593.224 176.649C600.857 184.155 604.673 195.477 604.673 210.616V269.39H574.904V215.195C574.904 207.054 573.187 201.011 569.752 197.067C566.444 192.996 561.674 190.961 555.44 190.961C548.443 190.961 542.909 193.251 538.838 197.83C534.767 202.283 532.732 208.962 532.732 217.867V269.39H502.963V215.195C502.963 199.039 496.475 190.961 483.499 190.961C476.629 190.961 471.159 193.251 467.088 197.83C463.017 202.283 460.982 208.962 460.982 217.867V269.39H431.213V166.726H459.646V178.557C463.462 174.232 468.106 170.924 473.576 168.634C479.174 166.344 485.28 165.199 491.895 165.199C499.147 165.199 505.698 166.662 511.55 169.588C517.402 172.387 522.109 176.522 525.671 181.992C529.87 176.649 535.149 172.514 541.51 169.588C547.998 166.662 555.059 165.199 562.692 165.199Z" fill="#1C1C1C"/>
<path fill-rule="evenodd" clip-rule="evenodd" d="M343.295 169.163C331.65 140.881 325.45 113.655 325.423 89.5191C325.394 62.1866 333.301 38.5335 350.523 22.0937C377.749 -3.89695 421.721 -5.79714 469.572 10.3361C517.622 26.5364 570.719 61.218 617.665 110.397C664.611 159.575 696.79 214.225 710.741 262.976C724.635 311.525 720.696 355.36 693.469 381.351C666.242 407.341 622.271 409.242 574.419 393.108C526.369 376.908 473.273 342.226 426.327 293.048C420.585 287.033 415.065 280.937 409.773 274.782L409.739 274.742L399.186 261.799C397.865 262.66 396.492 263.474 395.068 264.239C386.544 268.691 376.876 270.918 366.062 270.918C355.249 270.918 345.517 268.691 336.866 264.239C328.343 259.659 321.664 253.362 316.829 245.347C311.995 237.332 309.578 228.236 309.578 218.059C309.578 207.882 311.995 198.786 316.829 190.771C321.664 182.756 328.343 176.523 336.866 172.07C338.947 170.969 341.09 170 343.295 169.163ZM350.942 166.851C339.396 139.014 333.4 112.567 333.374 89.5105C333.346 63.6665 340.801 42.3661 356.013 27.845C380.034 4.91399 420.231 2.09145 467.032 17.8704C513.633 33.5822 565.673 67.4476 611.913 115.887C658.154 164.326 689.566 217.883 703.097 265.163C716.686 312.646 712 352.669 687.979 375.599C663.957 398.53 623.76 401.353 576.96 385.574C530.358 369.862 478.318 335.997 432.078 287.558C426.443 281.655 421.027 275.675 415.836 269.638L405.505 256.967C409.258 253.609 412.458 249.735 415.105 245.347C419.939 237.332 422.356 228.236 422.356 218.059C422.356 207.882 419.939 198.786 415.105 190.771C410.27 182.756 403.591 176.523 395.068 172.07C386.544 167.49 376.876 165.2 366.062 165.2C360.763 165.2 355.723 165.751 350.942 166.851ZM384.763 238.859C379.929 243.948 373.695 246.492 366.062 246.492C358.429 246.492 352.132 243.948 347.171 238.859C342.209 233.643 339.729 226.71 339.729 218.059C339.729 209.408 342.209 202.539 347.171 197.45C352.132 192.234 358.429 189.626 366.062 189.626C373.695 189.626 379.929 192.234 384.763 197.45C389.725 202.539 392.205 209.408 392.205 218.059C392.205 226.71 389.725 233.643 384.763 238.859Z" fill="#6ACE94"/>
</svg>

<svg id="Слой_1" data-name="Слой 1" xmlns="http://www.w3.org/2000/svg" viewBox="0 0 719 404"><path d="M44.84,169H71.18v22.9H45.61v77.47H15.84V191.92H0V169H15.84v-4.58q0-17.56,10.3-27.86,10.5-10.31,29.39-10.31a50.09,50.09,0,0,1,12.59,1.53,29.25,29.25,0,0,1,10.12,4l-7.83,21.56a20.32,20.32,0,0,0-12-3.63q-13.55,0-13.55,14.89Z" style="fill:#3d3939"/><path d="M90.69,166.73h29.77V269.39H90.69Zm14.88-14.31q-8.2,0-13.36-4.78a16.16,16.16,0,0,1,0-23.66q5.16-4.77,13.36-4.77t13.36,4.58a14.69,14.69,0,0,1,5.15,11.45,16.51,16.51,0,0,1-5.15,12.4Q113.79,152.41,105.57,152.42Z" style="fill:#3d3939"/><path d="M178.89,165.2q23.85,0,36.64,11.45,12.78,11.26,12.79,34.16v58.58H200.46V256.61q-8.4,14.31-31.3,14.31a49.24,49.24,0,0,1-20.61-4,30.73,30.73,0,0,1-13.17-11.07,28.82,28.82,0,0,1-4.58-16q0-14.31,10.69-22.51,10.88-8.2,33.39-8.21h23.67q0-9.74-5.92-14.88-5.91-5.36-17.75-5.35a51.05,51.05,0,0,0-16.22,2.67,41.66,41.66,0,0,0-13.35,6.87l-10.69-20.8a64.89,64.89,0,0,1,20-9.16A91.26,91.26,0,0,1,178.89,165.2Zm-2.29,85.68a26.47,26.47,0,0,0,13.55-3.43,19.79,19.79,0,0,0,8.4-10.5V226.46H178.13q-18.31,0-18.32,12a11,11,0,0,0,4.39,9.16Q168.78,250.88,176.6,250.88Z" style="fill:#3d3939"/><path d="M310.87,264.43a31.73,31.73,0,0,1-10.87,5,56.43,56.43,0,0,1-13.36,1.53q-18.31,0-28.43-9.35-9.93-9.36-9.93-27.48V191.92H232.44V169h15.84V144h29.77v25h25.57v22.9H278.05v41.79q0,6.48,3.25,10.11c2.28,2.29,5.47,3.44,9.54,3.44a19.17,19.17,0,0,0,12-3.82Z" style="fill:#3d3939"/><path d="M562.69,165.2q19.27,0,30.53,11.45,11.46,11.26,11.45,34v58.77H574.9V215.2q0-12.22-5.15-18.13-5-6.1-14.31-6.11-10.5,0-16.6,6.87-6.11,6.67-6.11,20v51.52H503V215.2Q503,191,483.5,191q-10.31,0-16.41,6.87-6.1,6.67-6.11,20v51.52H431.21V166.73h28.44v11.83a37.66,37.66,0,0,1,13.93-9.93,47.87,47.87,0,0,1,18.31-3.43,43.27,43.27,0,0,1,19.66,4.39A34.13,34.13,0,0,1,525.67,182a42.28,42.28,0,0,1,15.84-12.4A50.87,50.87,0,0,1,562.69,165.2Z" style="fill:#3d3939"/><path d="M343.3,169.16c-11.65-28.28-17.85-55.5-17.88-79.64,0-27.33,7.88-51,25.1-67.43,27.23-26,71.2-27.89,119.05-11.75,48.05,16.2,101.15,50.88,148.09,100.06S696.79,214.23,710.74,263c13.9,48.55,10,92.38-17.27,118.37s-71.2,27.89-119.05,11.76c-48-16.2-101.15-50.88-148.09-100.06q-8.62-9-16.56-18.27l0,0L399.19,261.8q-2,1.29-4.12,2.44a61.76,61.76,0,0,1-29,6.68,62.87,62.87,0,0,1-29.19-6.68,51.16,51.16,0,0,1-20-18.89,55,55,0,0,1,0-54.58,49.8,49.8,0,0,1,20-18.7A57.22,57.22,0,0,1,343.3,169.16Zm7.64-2.31C339.4,139,333.4,112.57,333.37,89.51c0-25.84,7.43-47.14,22.64-61.66,24-22.94,64.22-25.76,111-10,46.6,15.71,98.64,49.58,144.88,98s77.66,102,91.19,149.27C716.69,312.65,712,352.67,688,375.6s-64.22,25.75-111,10c-46.6-15.71-98.64-49.57-144.88-98q-8.46-8.85-16.24-17.92L405.51,257a50.63,50.63,0,0,0,9.6-11.62,55,55,0,0,0,0-54.58,49.93,49.93,0,0,0-20-18.7,60.32,60.32,0,0,0-29-6.87A67.25,67.25,0,0,0,350.94,166.85Zm33.82,72q-7.25,7.63-18.7,7.63t-18.89-7.63q-7.44-7.83-7.44-20.8t7.44-20.61q7.44-7.83,18.89-7.82t18.7,7.82q7.46,7.63,7.44,20.61T384.76,238.86Z" style="fill:#3d3939;fill-rule:evenodd"/></svg>
